app/assets/v2/images/kudos/assets/cellarius-logo.svg

<svg preserveAspectRatio="meet" viewBox="0 0 47 45" version="1.1" xmlns="http://www.w3.org/2000/svg" xmlns:xlink="http://www.w3.org/1999/xlink">
    <!-- Generator: Sketch 51.2 (57519) - http://www.bohemiancoding.com/sketch -->
    <desc>Created with Sketch.</desc>
    <defs></defs>
    <g id="Page-1" stroke="none" stroke-width="1" fill="none" fill-rule="evenodd">
        <g id="Headers-Copy-5" transform="translate(-1126.000000, -402.000000)" fill="#97B5BC" fill-rule="nonzero">
            <g id="brandmark" transform="translate(1126.000000, 402.000000)">
                <path d="M23.7711498,17.5552732 C27.2568315,17.5552732 30.5139438,16.0457433 32.7424944,13.4739517 C28.5711049,8.60991105 21.1997453,7.99491741 16.2283633,12.0762389 C15.7140824,12.523507 15.1998015,12.9707751 14.7998052,13.4739517 C17.0283558,16.0457433 20.3426105,17.5552732 23.7711498,17.5552732 Z M22.3997341,11.4053367 C23.2568689,10.9021601 24.342573,10.9021601 25.1425655,11.4053367 C26.3425543,12.1321474 26.6854082,13.6975858 25.8854157,14.8716645 C25.7139888,15.1512071 25.4282771,15.4307497 25.1425655,15.5984752 C24.2854307,16.1016518 23.1997266,16.1016518 22.3997341,15.5984752 C21.1997453,14.8716645 20.8568914,13.3062262 21.6568839,12.1321474 C21.8283109,11.8526048 22.1140225,11.5730623 22.3997341,11.4053367 Z M26.7996929,15.9339263 C27.9996816,14.5362135 27.9996816,12.4675985 26.7996929,11.0139771 C28.3996779,11.4612452 29.8853783,12.3557814 31.085367,13.4739517 C29.8853783,14.6480305 28.3996779,15.4866582 26.7996929,15.9339263 Z M20.7997491,11.0139771 C19.5997603,12.41169 19.5997603,14.480305 20.7997491,15.9339263 C19.199764,15.4307497 17.7140637,14.592122 16.5140749,13.4739517 C17.7140637,12.2998729 19.199764,11.4612452 20.7997491,11.0139771 Z M22.8568727,14.8716645 C23.4282959,15.2071156 24.1140037,15.2071156 24.685427,14.8716645 C25.4854195,14.3684879 25.7139888,13.3621347 25.1997079,12.5794155 C25.0854232,12.3557814 24.9139962,12.1880559 24.685427,12.0762389 C24.1140037,11.7407878 23.4282959,11.7407878 22.8568727,12.0762389 C22.0568801,12.5794155 21.8283109,13.5857687 22.3425918,14.3684879 C22.5140187,14.592122 22.6854457,14.7598475 22.8568727,14.8716645 Z M23.4854382,13.0266836 C23.6568652,12.9148666 23.8854344,12.9148666 24.0568614,13.0266836 C24.2854307,13.1944091 24.3997153,13.5298602 24.2282884,13.7534943 C24.1711461,13.8094028 24.1140037,13.8653113 24.0568614,13.9212198 C23.8854344,14.0330368 23.6568652,14.0330368 23.4854382,13.9212198 C23.2568689,13.7534943 23.1425843,13.4180432 23.3140112,13.1944091 C23.3711535,13.1385006 23.4282959,13.0825921 23.4854382,13.0266836 Z M24.2854307,5.25540025 C24.514,6.09402795 24.6282846,6.93265565 24.6282846,7.77128335 C25.0854232,7.82719187 25.4854195,7.82719187 25.942558,7.93900889 C25.942558,5.0317662 24.7997116,2.23634053 22.7997303,0.0559085133 C22.2854494,0.111817027 21.7140262,0.16772554 21.1997453,0.279542567 C22.6854457,1.62134689 23.7711498,3.3545108 24.2854307,5.25540025 Z M18.2283446,7.32401525 C18.7426255,7.60355781 19.2569064,7.99491741 19.7711873,8.386277 C20.2854682,8.21855146 20.7426067,8.10673443 21.2568876,7.99491741 C19.0854794,5.98221093 16.3426479,4.80813215 13.3712472,4.69631512 C13.0283933,5.08767471 12.6855393,5.47903431 12.3998277,5.92630241 C12.5712547,5.92630241 12.7426816,5.92630241 12.9141086,5.92630241 C14.7426629,5.92630241 16.5712172,6.42947903 18.2283446,7.32401525 Z M26.1711273,7.93900889 C26.5711236,7.99491741 27.0282622,8.10673443 27.4282584,8.21855146 C27.5996854,7.37992376 27.71397,6.48538755 27.71397,5.64675985 C27.71397,3.74587039 27.2568315,1.90088945 26.3425543,0.223634053 C25.8282734,0.111817027 25.2568502,0.0559085133 24.7425693,0 C26.285412,2.40406607 26.7996929,5.25540025 26.1711273,7.93900889 Z M15.828367,9.61626429 C14.7998052,9.61626429 13.7712434,9.72808132 12.799824,10.0076239 C12.9712509,10.3989835 13.1426779,10.7903431 13.3141049,11.1817027 C13.8855281,11.0698856 14.5140936,10.9580686 15.0855168,10.9021601 C15.6569401,10.454892 16.2283633,10.0076239 16.7997865,9.67217281 C16.4569326,9.61626429 16.1140786,9.61626429 15.828367,9.61626429 Z M21.4854569,7.93900889 C21.9425955,7.88310038 22.3997341,7.82719187 22.8568727,7.77128335 C21.3711723,5.19949174 18.9140524,3.24269377 15.999794,2.34815756 C15.5997977,2.62770013 15.1426592,2.96315121 14.7426629,3.29860229 C17.5426367,3.91359593 19.9997565,5.59085133 21.4854569,7.93900889 Z M27.7711123,8.33036849 C28.1711086,8.44218551 28.5711049,8.60991105 28.9711011,8.77763659 C29.2568127,8.16264295 29.485382,7.5476493 29.656809,6.93265565 C30.1710899,5.08767471 30.2282322,3.18678526 29.7710936,1.34180432 C29.2568127,1.11817027 28.7996741,0.894536213 28.2853932,0.726810673 C29.0853858,3.24269377 28.9139588,5.98221093 27.7711123,8.33036849 Z M22.1140225,5.42312579 C22.571161,6.14993647 22.914015,6.93265565 23.1425843,7.77128335 C23.3711535,7.77128335 23.5997228,7.77128335 23.8282921,7.77128335 C24.0568614,7.77128335 24.2854307,7.77128335 24.514,7.77128335 C23.7711498,4.86404066 21.8854532,2.34815756 19.3140487,0.782719187 C18.7997678,0.950444727 18.2854869,1.17407878 17.8283483,1.39771283 C19.5997603,2.29224905 21.0854607,3.68996188 22.1140225,5.42312579 Z M31.7710749,17.3316391 C32.7996367,17.3316391 33.8281985,17.2198221 34.799618,16.9402795 C34.628191,16.5489199 34.456764,16.1575604 34.2853371,15.7662008 C33.7139138,15.9339263 33.0853483,15.9898348 32.4567828,16.0457433 C31.8853595,16.4930114 31.3139363,16.9402795 30.6853708,17.2757306 C31.085367,17.3316391 31.428221,17.3316391 31.7710749,17.3316391 Z M27.885397,18.5616264 C27.3711161,18.729352 26.9139775,18.841169 26.3996966,18.952986 C28.5139625,20.9656925 31.3139363,22.1397713 34.2281947,22.2515883 C34.5710487,21.8602287 34.9139026,21.4129606 35.1996142,21.021601 C35.0281873,21.021601 34.8567603,21.021601 34.6853333,21.021601 C32.2282135,21.021601 29.7710936,20.1270648 27.885397,18.5616264 Z M34.5139064,13.0266836 C34.799618,13.3621347 35.0281873,13.6975858 35.2567565,14.0889454 C36.0567491,13.6416773 36.8567416,13.0825921 37.5424494,12.4675985 C37.4853071,11.9644219 37.4281648,11.4053367 37.3138801,10.9021601 C36.5138876,11.7966963 35.5996105,12.4675985 34.5139064,13.0266836 Z M32.2282135,10.678526 C33.5996292,9.33672173 34.628191,7.71537484 35.1996142,5.92630241 C34.9139026,5.47903431 34.5710487,5.08767471 34.2281947,4.69631512 C33.7710562,6.7090216 32.7424944,8.55400254 31.1996517,9.95171537 C31.5425056,10.1753494 31.8853595,10.3989835 32.2282135,10.678526 Z M29.4282397,9.00127065 C29.8282359,9.16899619 30.2282322,9.39263024 30.5710861,9.61626429 C30.7996554,9.33672173 30.9710824,9.00127065 31.1996517,8.66581957 C32.1710712,7.04447268 32.685352,5.19949174 32.7996367,3.29860229 C32.3996404,2.96315121 31.9425019,2.62770013 31.4853633,2.34815756 C31.5996479,4.36086404 31.085367,6.31766201 30.0568052,8.05082592 C29.8853783,8.33036849 29.656809,8.66581957 29.4282397,9.00127065 Z M32.9139213,11.2935197 C33.2567753,11.5730623 33.5424869,11.9085133 33.8281985,12.1880559 C35.0281873,11.3494282 35.9996067,10.2871665 36.7995992,9.05717916 C36.6281723,8.55400254 36.399603,8.05082592 36.1710337,7.60355781 C35.4281835,9.05717916 34.2853371,10.343075 32.9139213,11.2935197 Z M13.9998127,8.60991105 C14.9140899,8.60991105 15.8855094,8.72172808 16.7426442,8.94536213 C17.0283558,9.00127065 17.3140674,9.11308767 17.599779,9.2249047 C18.1140599,8.94536213 18.6854831,8.72172808 19.199764,8.55400254 C17.5426367,7.77128335 15.7712247,7.37992376 13.9426704,7.37992376 C13.3141049,7.37992376 12.6855393,7.43583227 12.0569738,7.5476493 C12.1712584,7.88310038 12.2855431,8.33036849 12.3426854,8.72172808 C12.9141086,8.60991105 13.4855318,8.60991105 13.9998127,8.60991105 Z M26.0568427,19.0088945 C25.5997041,19.064803 25.1425655,19.1207116 24.6282846,19.1766201 C26.113985,21.7484117 28.5711049,23.7052097 31.4853633,24.5997459 C31.9425019,24.3202033 32.3424981,23.9847522 32.7424944,23.6493011 C30.0568052,23.0343075 27.5996854,21.3570521 26.0568427,19.0088945 Z M24.4568577,19.1766201 C24.2282884,19.1766201 23.9997191,19.1766201 23.7711498,19.1766201 C23.5425805,19.1766201 23.3140112,19.1766201 23.1425843,19.1766201 C23.8854344,22.0838628 25.7711311,24.5997459 28.3425356,26.1651842 C28.8568165,25.9974587 29.3710974,25.7738247 29.8282359,25.5501906 C27.1996891,24.2642948 25.2568502,21.9720457 24.4568577,19.1766201 Z M21.3711723,19.0088945 C20.971176,18.952986 20.5140374,18.841169 20.1140412,18.729352 C19.4854756,21.4129606 19.8854719,24.2642948 21.1997453,26.7242694 C21.7140262,26.8360864 22.2854494,26.8919949 22.7997303,26.9479034 C21.2568876,24.5438374 20.7997491,21.6925032 21.3711723,19.0088945 Z M22.914015,19.1766201 C22.4568764,19.1766201 22.0568801,19.1207116 21.6568839,19.0088945 C21.6568839,21.9161372 22.7997303,24.7115629 24.7997116,26.8919949 C25.3139925,26.8360864 25.8854157,26.7801779 26.3996966,26.6683609 C24.2282884,24.7674714 22.9711573,22.0279543 22.914015,19.1766201 Z M35.8853221,15.2630241 C36.0567491,15.6543837 36.228176,16.0457433 36.399603,16.4371029 C36.6853146,16.3252859 37.0281685,16.1575604 37.3138801,16.0457433 C37.4281648,15.5425667 37.4853071,14.9834816 37.5424494,14.480305 C37.0281685,14.7598475 36.4567453,15.0393901 35.8853221,15.2630241 Z M33.5996292,18.3379924 C32.3424981,18.3379924 31.1425094,18.1143583 29.9996629,17.7229987 C29.485382,18.0025413 28.9139588,18.2261753 28.3996779,18.3939009 C30.5710861,19.4561626 33.0853483,19.7916137 35.4853258,19.4561626 C35.4281835,19.064803 35.3710412,18.6175349 35.2567565,18.2261753 C34.6853333,18.3379924 34.1139101,18.3379924 33.5996292,18.3379924 Z M13.0283933,13.9212198 C12.799824,13.5857687 12.5141124,13.2503177 12.2855431,12.8589581 C11.4855506,13.3062262 10.685558,13.8653113 9.99985018,14.480305 C10.0569925,14.9834816 10.1141348,15.5425667 10.2284195,16.0457433 C11.0855543,15.1512071 11.9998315,14.480305 13.0283933,13.9212198 Z M14.6855206,15.6543837 C14.3426667,15.3748412 14.0569551,15.0393901 13.7712434,14.7598475 C12.5712547,15.5984752 11.5998352,16.660737 10.7998427,17.8907243 C10.9712697,18.3939009 11.1998389,18.8970775 11.4284082,19.3443456 C12.1712584,17.8907243 13.3141049,16.6048285 14.6855206,15.6543837 Z M11.1998389,10.5108005 C10.9141273,10.6226175 10.5712734,10.7903431 10.2855618,10.9021601 C10.1712771,11.4053367 10.1141348,11.9644219 10.0569925,12.4675985 C10.5712734,12.1321474 11.0855543,11.8526048 11.6569775,11.6289708 C11.4855506,11.2935197 11.3141236,10.9580686 11.1998389,10.5108005 Z M15.3712285,16.2693774 C13.9998127,17.6111817 12.9712509,19.2325286 12.3998277,21.021601 C12.6855393,21.4688691 13.0283933,21.8602287 13.3712472,22.2515883 C13.8283858,20.2388818 14.8569476,18.3939009 16.3997903,16.9961881 C16.0569363,16.772554 15.7140824,16.5489199 15.3712285,16.2693774 Z M18.6283408,18.1702668 C17.5426367,20.5184244 17.2569251,23.090216 17.8283483,25.6060991 C18.2854869,25.8297332 18.7997678,26.0533672 19.3140487,26.2210928 C18.5140562,23.7052097 18.6854831,21.021601 19.8283296,18.6175349 C19.4283333,18.4498094 18.9711947,18.3379924 18.6283408,18.1702668 Z M18.1712022,17.9466328 C17.771206,17.7789072 17.3712097,17.5552732 17.0283558,17.3316391 C15.7140824,19.1766201 14.9140899,21.3570521 14.7998052,23.5933926 C15.1998015,23.9288437 15.6569401,24.2642948 16.0569363,24.5438374 C15.9426517,22.2515883 16.6855019,19.9034307 18.1712022,17.9466328 Z M3.04056146,36.4269377 L4.25477435,36.4269377 L4.25477435,39.553014 L3.04056146,39.553014 L3.04056146,37.5786501 L1.82634857,37.5786501 L1.82634857,43.78967 L3.04056146,43.78967 L3.04056146,41.8153061 L4.25477435,41.8153061 L4.25477435,44.9413823 L0.567164831,44.9413823 L0.567164831,36.4269377 L3.04056146,36.4269377 Z M9.06665507,37.5786501 L7.22285031,37.5786501 L7.22285031,39.553014 L9.06665507,39.553014 L9.06665507,40.6635937 L7.22285031,40.6635937 L7.22285031,43.7485374 L9.06665507,43.7485374 L9.06665507,44.8591172 L5.96366657,44.8591172 L5.96366657,36.4269377 L9.06665507,36.4269377 L9.06665507,37.5786501 Z M12.1246727,43.7485374 L14.0134483,43.7485374 L14.0134483,44.8591172 L10.9104598,44.8591172 L10.9104598,36.4269377 L12.1246727,36.4269377 L12.1246727,43.7485374 Z M16.6667284,43.7485374 L18.5105331,43.7485374 L18.5105331,44.8591172 L15.4075446,44.8591172 L15.4075446,36.4269377 L16.6217575,36.4269377 L16.6217575,43.7485374 L16.6667284,43.7485374 Z M23.7721223,36.4269377 L23.9969766,36.4269377 L23.9969766,44.9002498 L22.7827637,44.9002498 L22.7827637,41.2394499 L21.5685508,41.2394499 L21.5685508,44.9002498 L20.3543379,44.9002498 L20.3543379,36.4269377 L23.7721223,36.4269377 Z M22.9176762,40.2111353 L22.9176762,37.6609152 L21.7034633,37.6609152 L21.7034633,40.2111353 L22.9176762,40.2111353 Z M29.8431868,36.4269377 L29.8431868,38.7714949 C29.8431868,39.3884837 29.6183325,39.9643398 29.1236532,40.4167983 C29.5733617,40.9515218 29.7982159,41.6096431 29.8431868,42.2677645 L29.8431868,44.9002498 L28.6289739,44.9002498 L28.6289739,42.2677645 C28.6289739,41.8153061 28.4490905,41.4039802 28.1342946,41.0749196 C27.9094403,41.1571847 27.6396152,41.1983173 27.414761,41.2394499 L27.414761,44.9002498 L26.2005481,44.9002498 L26.2005481,36.4269377 L29.8431868,36.4269377 Z M28.7638864,37.6609152 L27.5496735,37.6609152 L27.5496735,40.1700028 C27.8644695,40.1288702 28.1792654,40.0054724 28.4041196,39.7586769 C28.6739447,39.5118814 28.8088573,39.1828208 28.8088573,38.8537601 C28.7638864,38.8537601 28.7638864,37.6609152 28.7638864,37.6609152 Z M34.8799217,37.5375175 L34.5201549,37.5375175 L34.5201549,43.7485374 L35.7343678,43.7485374 L35.7343678,44.8591172 L32.0467583,44.8591172 L32.0467583,43.7485374 L33.2609712,43.7485374 L33.2609712,37.5375175 L32.0467583,37.5375175 L32.0467583,36.4269377 L35.7343678,36.4269377 L35.7343678,37.5375175 L34.8799217,37.5375175 Z M39.9166567,36.4269377 L41.1308696,36.4269377 L41.1308696,44.9002498 L37.4432601,44.9002498 L37.4432601,36.4269377 L38.6574729,36.4269377 L38.6574729,43.7485374 L39.8716858,43.7485374 L39.9166567,36.4269377 Z M45.774327,39.553014 L45.774327,37.5786501 L44.5601141,37.5786501 L44.5601141,39.553014 L46.7636857,41.0749196 C46.9435691,41.1983173 47.0335107,41.3628477 46.9885399,41.527378 L46.9885399,44.9002498 L43.3009304,44.9002498 L43.3009304,40.9515218 L44.5151433,41.7741735 L44.5151433,43.7485374 L45.7293562,43.7485374 L45.7293562,41.7741735 L43.5257846,40.2934005 C43.3459012,40.2111353 43.2559595,40.0054724 43.3009304,39.8409421 L43.3009304,36.4269377 L46.9885399,36.4269377 L46.9885399,39.553014 L45.774327,39.553014 Z" id="logo"></path>
            </g>
        </g>
    </g>
</svg>

<svg preserveAspectRatio="meet" viewBox="0 0 47 45" xmlns="http://www.w3.org/2000/svg"><path d="M23.771 17.555c3.486 0 6.743-1.51 8.971-4.081-4.17-4.864-11.542-5.48-16.514-1.398-.514.448-1.028.895-1.428 1.398 2.228 2.572 5.543 4.081 8.971 4.081zm-1.371-6.15c.857-.503 1.943-.503 2.743 0a2.428 2.428 0 0 1 .742 3.467c-.171.28-.457.559-.742.726-.858.504-1.943.504-2.743 0a2.428 2.428 0 0 1-.743-3.466c.171-.28.457-.559.743-.727zm4.4 4.529c1.2-1.398 1.2-3.466 0-4.92 1.6.447 3.085 1.342 4.285 2.46a9.968 9.968 0 0 1-4.285 2.46zm-6-4.92c-1.2 1.398-1.2 3.466 0 4.92-1.6-.503-3.086-1.342-4.286-2.46a9.968 9.968 0 0 1 4.286-2.46zm2.057 3.858a1.787 1.787 0 0 0 1.828 0c.8-.504 1.029-1.51.515-2.293a1.11 1.11 0 0 0-.515-.503 1.787 1.787 0 0 0-1.828 0c-.8.503-1.029 1.51-.514 2.292.171.224.342.392.514.504zm.628-1.845a.529.529 0 0 1 .572 0c.228.167.343.503.171.726l-.171.168a.529.529 0 0 1-.572 0c-.228-.168-.342-.503-.171-.727l.171-.167zm.8-7.772a9.53 9.53 0 0 1 .343 2.516c.457.056.857.056 1.315.168 0-2.907-1.143-5.703-3.143-7.883-.515.056-1.086.112-1.6.224 1.485 1.341 2.571 3.075 3.085 4.975zm-6.057 2.069c.515.28 1.029.67 1.543 1.062.514-.167.972-.28 1.486-.391-2.172-2.013-4.914-3.187-7.886-3.299-.343.392-.685.783-.971 1.23h.514c1.829 0 3.657.503 5.314 1.398zm7.943.615c.4.056.857.168 1.257.28.172-.84.286-1.734.286-2.572 0-1.901-.457-3.746-1.371-5.423-.515-.112-1.086-.168-1.6-.224 1.542 2.404 2.057 5.255 1.428 7.939zM15.828 9.616c-1.028 0-2.057.112-3.028.392l.514 1.174c.572-.112 1.2-.224 1.772-.28.57-.447 1.142-.894 1.714-1.23-.343-.056-.686-.056-.972-.056zm5.657-1.677l1.372-.168C21.37 5.2 18.914 3.243 16 2.348c-.4.28-.857.615-1.257.95 2.8.616 5.257 2.293 6.742 4.641zm6.286.391c.4.112.8.28 1.2.448.286-.615.514-1.23.686-1.845.514-1.845.571-3.746.114-5.591-.514-.224-.971-.447-1.486-.615.8 2.516.629 5.255-.514 7.603zm-5.657-2.907c.457.727.8 1.51 1.029 2.348h1.371c-.743-2.907-2.629-5.423-5.2-6.988-.514.167-1.029.391-1.486.615a10.5 10.5 0 0 1 4.286 4.025zm9.657 11.909c1.029 0 2.057-.112 3.029-.392l-.515-1.174c-.571.168-1.2.224-1.828.28-.572.447-1.143.894-1.772 1.23.4.056.743.056 1.086.056zm-3.886 1.23c-.514.167-.971.28-1.485.391a12.05 12.05 0 0 0 7.828 3.299c.343-.392.686-.839.972-1.23h-.515c-2.457 0-4.914-.895-6.8-2.46zm6.629-5.535c.286.335.514.67.743 1.062.8-.447 1.6-1.006 2.285-1.621-.057-.504-.114-1.063-.228-1.566-.8.895-1.714 1.566-2.8 2.125zm-2.286-2.348c1.372-1.342 2.4-2.964 2.972-4.753-.286-.447-.629-.838-.972-1.23-.457 2.013-1.486 3.858-3.028 5.256.343.223.685.447 1.028.727zM29.428 9c.4.168.8.392 1.143.615.229-.28.4-.615.629-.95.971-1.622 1.485-3.467 1.6-5.367-.4-.336-.857-.671-1.315-.95.115 2.012-.4 3.969-1.428 5.702-.172.28-.4.615-.629.95zm3.486 2.293c.343.28.628.615.914.894 1.2-.839 2.172-1.9 2.972-3.13-.172-.504-.4-1.007-.629-1.454-.743 1.453-1.886 2.74-3.257 3.69zM14 8.61c.914 0 1.886.112 2.743.335.285.056.571.168.857.28a9.746 9.746 0 0 1 1.6-.671 12.22 12.22 0 0 0-5.257-1.174c-.629 0-1.257.056-1.886.168.114.335.229.782.286 1.174.571-.112 1.143-.112 1.657-.112zm12.057 10.399c-.457.056-.914.112-1.429.168 1.486 2.571 3.943 4.528 6.857 5.423.458-.28.857-.615 1.257-.95a11.026 11.026 0 0 1-6.685-4.641zm-1.6.168h-1.314c.742 2.907 2.628 5.423 5.2 6.988a11.735 11.735 0 0 0 1.485-.615c-2.628-1.286-4.571-3.578-5.371-6.373zm-3.086-.168a10.14 10.14 0 0 1-1.257-.28c-.629 2.684-.229 5.535 1.086 7.995.514.112 1.085.168 1.6.224-1.543-2.404-2-5.255-1.429-7.94zm1.543.168c-.457 0-.857-.056-1.257-.168 0 2.907 1.143 5.703 3.143 7.883.514-.056 1.085-.112 1.6-.224a10.253 10.253 0 0 1-3.486-7.491zm12.971-3.914l.515 1.174c.285-.112.628-.28.914-.391.114-.503.171-1.063.228-1.566-.514.28-1.085.56-1.657.783zM33.6 18.338c-1.258 0-2.457-.224-3.6-.615a9.746 9.746 0 0 1-1.6.67c2.171 1.063 4.685 1.399 7.085 1.063-.057-.391-.114-.838-.228-1.23-.572.112-1.143.112-1.657.112zm-20.572-4.417c-.228-.335-.514-.67-.742-1.062-.8.447-1.6 1.006-2.286 1.621.057.503.114 1.063.228 1.566a11.171 11.171 0 0 1 2.8-2.125zm1.658 1.733c-.343-.28-.629-.615-.915-.894-1.2.838-2.171 1.9-2.971 3.13.171.504.4 1.007.628 1.454.743-1.453 1.886-2.74 3.258-3.69zM11.2 10.511c-.286.112-.629.28-.914.391-.115.503-.172 1.062-.229 1.566a8.686 8.686 0 0 1 1.6-.839c-.171-.335-.343-.67-.457-1.118zm4.171 5.758c-1.371 1.342-2.4 2.964-2.971 4.753.286.447.628.838.971 1.23.457-2.013 1.486-3.858 3.029-5.256a11.584 11.584 0 0 1-1.029-.727zm3.257 1.901c-1.085 2.348-1.371 4.92-.8 7.436.457.224.972.447 1.486.615-.8-2.516-.629-5.2.514-7.603-.4-.168-.857-.28-1.2-.448zm-.457-.223a7.37 7.37 0 0 1-1.143-.615c-1.314 1.845-2.114 4.025-2.228 6.261.4.336.857.671 1.257.95-.114-2.291.629-4.64 2.114-6.596zm-15.13 18.48h1.214v3.126H3.04v-1.974H1.826v6.21h1.215v-1.974h1.214v3.126H.567v-8.514h2.474zm6.026 1.152H7.223v1.974h1.844v1.11H7.223v3.086h1.844v1.11H5.964v-8.432h3.103v1.152zm3.058 6.17h1.888v1.11H10.91v-8.432h1.215v7.322zm4.542 0h1.844v1.11h-3.103v-8.432h1.214v7.322h.045zm7.105-7.322h.225V44.9h-1.214v-3.66h-1.214v3.66h-1.215v-8.473h3.418zm-.854 3.784v-2.55h-1.215v2.55h1.215zm6.925-3.784v2.344c0 .617-.225 1.193-.72 1.646.45.535.675 1.193.72 1.85V44.9H28.63v-2.632c0-.453-.18-.864-.495-1.193-.225.082-.494.123-.72.164V44.9h-1.213v-8.473h3.642zm-1.08 1.234H27.55v2.509c.314-.041.63-.165.854-.411.27-.247.405-.576.405-.905-.045 0-.045-1.193-.045-1.193zm6.117-.123h-.36v6.21h1.214v1.111h-3.687v-1.11h1.214v-6.211h-1.214v-1.111h3.687v1.11h-.854zm5.037-1.111h1.214V44.9h-3.688v-8.473h1.214v7.322h1.215l.045-7.322zm5.857 3.126v-1.974H44.56v1.974l2.204 1.522c.18.123.27.288.225.452V44.9H43.3v-3.948l1.214.822v1.975h1.214v-1.975l-2.203-1.48a.402.402 0 0 1-.225-.453v-3.414h3.688v3.126h-1.215z" fill="#97B5BC" fill-rule="nonzero"/></svg>
